X:6
T:Cathy's Favourite
T:Pat Hogan's One
R:polka
H:Also played in G
Z:id:hn-polka-6
M:2/4
L:1/8
K:D
D>D FA|dc BA|BE EF|GA/G/ FE|D>D FA|dcBA|Be Bc|d2 d2:|
K:Edor
|:eB eB|eB B>c|dA dA|dA A2|eB eB|eB B>c|dB AF|E2 E2:|
<end>
<start>
